img/shap-left.svg

<svg width="616" height="1449" fill="none" xmlns="http://www.w3.org/2000/svg"><path opacity=".08" d="M312.455 764.463l-.022.008a471.075 471.075 0 01-66.758 18.881c-19.452 4.535-39.128 9.123-56.33 15.302-17.226 6.188-31.772 13.905-41.088 24.58l164.198-58.771zm0 0l.022-.009c18.58-7.448 34.531-17.189 44.838-31.271 10.347-14.135 14.877-32.465 10.948-56.787-4.676-29.023-17.575-49.14-38.307-58.801-25.251-11.984-57.433-6.619-83.421 1.764-7.048 2.273-13.672 4.778-19.618 7.244l-.3-.943c-18.081-56.787-46.363-91.513-83.786-102.779-39.115-11.785-75.799 6.327-91.473 18.506l-.006.004-.005.005c-6.524 5.171-17.37 14.779-26.703 27.566-9.328 12.78-17.222 28.841-17.657 46.89v.002c-.523 23.318 11.26 45.483 34.676 65.877l2.69 2.353.003.002c31.256 27.201 49.955 43.489 63.387 61.97 13.392 18.427 21.592 39.105 31.596 75.178l1.83 6.6.745 2.69 1.832-2.106 4.51-5.182 164.199-58.773zm-90.516-135.74c-13.341 5.831-22.326 10.972-23.416 11.603l-1.303.755.76 1.3 3.718 6.367.739 1.266 1.283-.71.069-.039c1.323-.747 20.108-11.36 44.235-19.355 24.887-8.247 54.984-13.544 77.498-2.924 17.255 8.167 28.291 25.192 32.495 51.063 2.7 16.67.916 29.922-4.173 40.677-5.091 10.761-13.556 19.164-24.461 26.018-21.894 13.759-53.279 21.079-85.95 28.689l-.371.087c-19.424 4.522-38.361 8.931-55.14 14.733-15.98 5.527-30.124 12.356-40.939 21.856-9.644-33.18-18.483-53.527-32.275-71.937-14.057-18.761-33.216-35.446-63.361-61.696l-.075-.066-.003-.002-2.69-2.352 173.36-45.333zm0 0l-3.33 1.059-1.425.453-.458-1.423c-17.34-53.842-43.302-85.888-76.835-95.879l-.003-.001c-34.949-10.504-68.966 6.357-82.044 16.699-5.977 4.76-15.93 13.531-24.47 25.089-8.547 11.567-15.597 25.811-15.962 41.542-.426 19.829 9.974 39.234 31.166 57.793l173.361-45.332z" fill="#7D869D" stroke="#7D869D" stroke-width="3"/><g opacity=".08" stroke="#7D869D" stroke-width="10" stroke-miterlimit="10" stroke-linecap="round"><path d="M558.915 32.194c-40.725 5.071-124.282 26.083-176.438 86.386-52.155 60.303-52.349 113.451-42.27 123.116 10.079 9.665 86.65 5.964 141.143-53.961 59.436-65.37 77.565-155.54 77.565-155.54zm-10.243 10.713c-40.111 32.33-252.638 238.257-271.269 265.44"/><path d="M501.962 52.391l-.591 33.024 34.546 3.677M466.968 61.85l-.656 55.193 56.279 5.091m-94.632-36.66l6.721 63.308 61.086 8.663m-103.103-45.917l8.532 65.347 74.074 13.337m-107.831-45.705l5.785 61.629 63.459 13.109m-94.745-21.733l7.442 33.566 30.781 9.461"/></g><g opacity=".08" stroke="#505666" stroke-width="10" stroke-miterlimit="10" stroke-linecap="round"><path d="M440.719 1282.05c-6.692-31.41-34.417-91.52-94.087-103.51 45.653-4.54 57.246-29.39 57.246-29.39s-62.001 1.14-96.842-22.57c11.433-15.23 36.701-19.87 51.312-13.65-39.059-66.91-159.913-33.78-181.633 4.2-21.719 37.97-14.257 116.54 26.188 143.75 40.445 27.21 47.124 50.83 47.124 50.83s13.525-21.7-5.853-56.17c26.472 41.82 62.255 51.54 76.33 47.68-26.013-19.16-29.944-52.1-27.885-50.48 71.094 56.09 148.1 29.31 148.1 29.31zm-115.888-68.51c-22.497-16.97-141.45-96.14-193.252-120.72m139.69 83.89c14.992.92 31.733-3.07 40.295-7.44m-45.146 4.42c2.408 2.39 3.92 32.08 16.357 41.78"/><path d="M251.332 1116.08c-13.203 2.45-29.886 10.48-38.047 23.57-3.629 5.83-6.491 24.47-.781 38.73"/></g></svg>

<svg width="616" height="1449" viewBox="0 0 616 1449" fill="none" xmlns="http://www.w3.org/2000/svg">
<path opacity="0.08" d="M312.455 764.463L312.433 764.471C290.674 772.397 268.361 778.708 245.675 783.352C226.223 787.887 206.547 792.475 189.345 798.654C172.119 804.842 157.573 812.559 148.257 823.234L312.455 764.463ZM312.455 764.463L312.477 764.454C331.057 757.006 347.008 747.265 357.315 733.183C367.662 719.048 372.192 700.718 368.263 676.396C363.587 647.373 350.688 627.256 329.956 617.595C304.705 605.611 272.523 610.976 246.535 619.359C239.487 621.632 232.863 624.137 226.917 626.603L226.617 625.66C208.536 568.873 180.254 534.147 142.831 522.881C103.716 511.096 67.032 529.208 51.3581 541.387L51.3523 541.391L51.3466 541.396C44.8232 546.567 33.9776 556.175 24.6445 568.962C15.3164 581.742 7.42221 597.803 6.98715 615.852L6.9871 615.854C6.46407 639.172 18.2477 661.337 41.6628 681.731L44.3539 684.084L44.3565 684.086C75.6121 711.287 94.3106 727.575 107.743 746.056C121.135 764.483 129.335 785.161 139.339 821.234L141.169 827.834L141.914 830.524L143.746 828.418L148.256 823.236L312.455 764.463ZM221.939 628.723C208.598 634.554 199.613 639.695 198.523 640.326L197.22 641.081L197.98 642.381L201.698 648.748L202.437 650.014L203.72 649.304C203.729 649.299 203.753 649.286 203.789 649.265C205.112 648.518 223.897 637.905 248.024 629.91C272.911 621.663 303.008 616.366 325.522 626.986C342.777 635.153 353.813 652.178 358.017 678.049C360.717 694.719 358.933 707.971 353.844 718.726C348.753 729.487 340.288 737.89 329.383 744.744C307.489 758.503 276.104 765.823 243.433 773.433L243.062 773.52C223.638 778.042 204.701 782.451 187.922 788.253C171.942 793.78 157.798 800.609 146.983 810.109C137.339 776.929 128.5 756.582 114.708 738.172C100.651 719.411 81.4922 702.726 51.347 676.476L51.2716 676.41L51.2693 676.408L48.5793 674.056L221.939 628.723ZM221.939 628.723L218.609 629.782L217.184 630.235L216.726 628.812C199.386 574.97 173.424 542.924 139.891 532.933L139.888 532.932C104.939 522.428 70.9222 539.289 57.8436 549.631C51.8669 554.391 41.9147 563.162 33.3744 574.72C24.8267 586.287 17.7775 600.531 17.412 616.262C16.9856 636.091 27.3863 655.496 48.5784 674.055L221.939 628.723Z" fill="#7D869D" stroke="#7D869D" stroke-width="3"/>
<g opacity="0.08">
<path d="M558.915 32.1943C518.19 37.2652 434.633 58.2767 382.477 118.58C330.322 178.883 330.128 232.031 340.207 241.696C350.286 251.361 426.857 247.66 481.35 187.735C540.786 122.365 558.915 32.1943 558.915 32.1943Z" stroke="#7D869D" stroke-width="10" stroke-miterlimit="10" stroke-linecap="round"/>
<path d="M548.672 42.9067C508.561 75.2365 296.034 281.164 277.403 308.347" stroke="#7D869D" stroke-width="10" stroke-miterlimit="10" stroke-linecap="round"/>
<path d="M501.962 52.391L501.371 85.4155L535.917 89.0921" stroke="#7D869D" stroke-width="10" stroke-miterlimit="10" stroke-linecap="round"/>
<path d="M466.968 61.8509L466.312 117.043L522.591 122.134" stroke="#7D869D" stroke-width="10" stroke-miterlimit="10" stroke-linecap="round"/>
<path d="M427.959 85.4743L434.68 148.782L495.766 157.445" stroke="#7D869D" stroke-width="10" stroke-miterlimit="10" stroke-linecap="round"/>
<path d="M392.663 111.528L401.195 176.875L475.269 190.212" stroke="#7D869D" stroke-width="10" stroke-miterlimit="10" stroke-linecap="round"/>
<path d="M367.438 144.507L373.223 206.136L436.682 219.245" stroke="#7D869D" stroke-width="10" stroke-miterlimit="10" stroke-linecap="round"/>
<path d="M341.937 197.512L349.379 231.078L380.16 240.539" stroke="#7D869D" stroke-width="10" stroke-miterlimit="10" stroke-linecap="round"/>
</g>
<g opacity="0.08">
<path d="M440.719 1282.05C434.027 1250.64 406.302 1190.53 346.632 1178.54C392.285 1174 403.878 1149.15 403.878 1149.15C403.878 1149.15 341.877 1150.29 307.036 1126.58C318.469 1111.35 343.737 1106.71 358.348 1112.93C319.289 1046.02 198.435 1079.15 176.715 1117.13C154.996 1155.1 162.458 1233.67 202.903 1260.88C243.348 1288.09 250.027 1311.71 250.027 1311.71C250.027 1311.71 263.552 1290.01 244.174 1255.54C270.646 1297.36 306.429 1307.08 320.504 1303.22C294.491 1284.06 290.56 1251.12 292.619 1252.74C363.713 1308.83 440.719 1282.05 440.719 1282.05Z" stroke="#505666" stroke-width="10" stroke-miterlimit="10" stroke-linecap="round"/>
<path d="M324.831 1213.54C302.334 1196.57 183.381 1117.4 131.579 1092.82" stroke="#505666" stroke-width="10" stroke-miterlimit="10" stroke-linecap="round"/>
<path d="M271.269 1176.71C286.261 1177.63 303.002 1173.64 311.564 1169.27" stroke="#505666" stroke-width="10" stroke-miterlimit="10" stroke-linecap="round"/>
<path d="M266.418 1173.69C268.826 1176.08 270.338 1205.77 282.775 1215.47" stroke="#505666" stroke-width="10" stroke-miterlimit="10" stroke-linecap="round"/>
<path d="M251.332 1116.08C238.129 1118.53 221.446 1126.56 213.285 1139.65C209.656 1145.48 206.794 1164.12 212.504 1178.38" stroke="#505666" stroke-width="10" stroke-miterlimit="10" stroke-linecap="round"/>
</g>
</svg>
